chinaunicom.svg

<svg viewBox="0 0 24 24" xmlns="http://www.w3.org/2000/svg"><path d="M15.7405 18.6909C15.3212 19.1105 14.6416 19.1105 14.2209 18.6909C13.8164 18.2867 13.4613 17.9302 13.4613 17.9302L14.6104 16.7808L13.1652 15.336L12.0158 16.4861L10.8657 15.336L9.42015 16.7808L10.5703 17.9302C10.5703 17.9302 10.2138 18.2867 9.8103 18.6909C9.39033 19.1105 8.70896 19.1105 8.28969 18.6909C7.87007 18.2716 7.87007 17.5902 8.28969 17.171C8.73107 16.7303 12 13.4298 12 13.4298C12 13.4298 15.2998 16.7303 15.7405 17.171C16.1608 17.5902 16.1608 18.2716 15.7405 18.6909ZM8.28969 6.82912C7.87007 6.40949 7.87007 5.72848 8.28969 5.30921C8.70896 4.88923 9.39033 4.88923 9.8103 5.30921C10.2138 5.71339 10.5703 6.06916 10.5703 6.06916L9.42015 7.21927L10.8657 8.6634L12.0158 7.51399L13.1652 8.6634L14.6104 7.21927L13.4613 6.06916C13.4613 6.06916 13.8164 5.71339 14.2209 5.30921C14.6416 4.88923 15.3212 4.88923 15.7405 5.30921C16.1608 5.72848 16.1608 6.40949 15.7405 6.82912C15.2998 7.26944 12 10.57 12 10.57C12 10.57 8.73107 7.26944 8.28969 6.82912ZM13.4599 12C13.4599 12 16.8478 8.61322 17.186 8.27465C18.4042 7.05577 18.4042 5.08185 17.186 3.86333C15.9689 2.6455 13.9936 2.6455 12.7757 3.86333C12.2972 4.34119 12.0158 4.62328 12.0158 4.62328C12.0158 4.62328 11.733 4.34119 11.2558 3.86333C10.0366 2.6455 8.06269 2.6455 6.84416 3.86333C5.62599 5.08185 5.62599 7.05577 6.84416 8.27465C7.18274 8.61322 10.5703 12 10.5703 12C10.5703 12 7.18274 15.3876 6.84416 15.7254C5.62599 16.9436 5.62599 18.9182 6.84416 20.1364C8.06269 21.3546 10.0366 21.3546 11.2558 20.1364C11.733 19.6589 12.0158 19.3758 12.0158 19.3758C12.0158 19.3758 12.2972 19.6589 12.7757 20.1364C13.9936 21.3546 15.9689 21.3546 17.186 20.1364C18.4042 18.9182 18.4042 16.9436 17.186 15.7254C16.8478 15.3876 13.4599 12 13.4599 12ZM21.6412 12.76C21.2216 13.1793 20.5406 13.1793 20.1206 12.76C19.7795 12.4186 19.3606 12 19.3606 12C19.3606 12 19.7795 11.5811 20.1206 11.2401C20.5406 10.8201 21.2216 10.8201 21.6412 11.2401C21.851 11.4499 21.9559 11.7246 21.9559 12C21.9559 12.2755 21.851 12.5502 21.6412 12.76ZM23.0867 9.79456C21.8682 8.57568 19.8929 8.57568 18.675 9.79456C18.3263 10.1437 17.9151 10.5545 17.9151 10.5545L16.7653 9.40546L15.3205 10.8499L16.4706 12L15.3205 13.1495L16.7653 14.5943L17.9151 13.4449C17.9151 13.4449 18.3263 13.8564 18.675 14.2055C19.8929 15.4234 21.8682 15.4234 23.0867 14.2055C23.6955 13.5964 24 12.7986 24 12C24 11.2011 23.6955 10.4036 23.0867 9.79456ZM3.87942 12.76C3.4591 13.1793 2.77808 13.1793 2.35881 12.76C2.149 12.5502 2.04479 12.2755 2.04479 12C2.04479 11.7246 2.149 11.4499 2.35881 11.2401C2.77808 10.8201 3.4591 10.8201 3.87942 11.2401C4.22045 11.5811 4.63938 12 4.63938 12C4.63938 12 4.22045 12.4186 3.87942 12.76ZM7.23431 14.5943L8.67984 13.1495L7.52903 12L8.67984 10.8499L7.23431 9.40546L6.08491 10.5545C6.08491 10.5545 5.67405 10.1437 5.32495 9.79456C4.10678 8.57568 2.1311 8.57568 0.91328 9.79456C0.304544 10.4036-1.42109e-14 11.2011-1.42109e-14 12C-1.42109e-14 12.7986 0.304544 13.5964 0.91328 14.2055C2.1311 15.4234 4.10678 15.4234 5.32495 14.2055C5.67405 13.8564 6.08491 13.4449 6.08491 13.4449L7.23431 14.5943" fill="#d91920"/></svg>

<svg viewBox="0 0 24 24" xmlns="http://www.w3.org/2000/svg"><path d="M15.74 18.69c-.419.42-1.098.42-1.52 0-.404-.403-.759-.76-.759-.76l1.15-1.15-1.446-1.444-1.15 1.15-1.15-1.15-1.445 1.445 1.15 1.15-.76.76a1.076 1.076 0 0 1-1.52-1.52C8.73 16.731 12 13.43 12 13.43l3.74 3.741c.42.42.42 1.1 0 1.52ZM8.29 6.83a1.075 1.075 0 1 1 1.52-1.52l.76.76-1.15 1.15 1.446 1.443 1.15-1.149 1.15 1.15 1.444-1.445-1.149-1.15.76-.76a1.074 1.074 0 1 1 1.52 1.52L12 10.57s-3.269-3.3-3.71-3.74ZM13.46 12l3.726-3.725a3.12 3.12 0 0 0-4.41-4.412l-.76.76-.76-.76a3.12 3.12 0 0 0-4.412 4.412L10.57 12s-3.387 3.388-3.726 3.725a3.119 3.119 0 1 0 4.412 4.411l.76-.76s.281.283.76.76a3.118 3.118 0 1 0 4.41-4.41L13.46 12Zm8.181.76c-.42.42-1.1.42-1.52 0l-.76-.76.76-.76a1.075 1.075 0 0 1 1.52 1.52Zm1.446-2.965a3.118 3.118 0 0 0-4.412 0l-.76.76-1.15-1.15-1.445 1.445L16.47 12l-1.15 1.15 1.445 1.444 1.15-1.15.76.761a3.12 3.12 0 0 0 4.412-4.41ZM3.879 12.76A1.076 1.076 0 0 1 2.045 12a1.075 1.075 0 0 1 1.835-.76l.76.76-.76.76Zm3.355 1.834L8.68 13.15 7.529 12l1.15-1.15-1.445-1.445-1.15 1.15-.759-.76a3.118 3.118 0 1 0-4.412 4.41 3.12 3.12 0 0 0 4.412 0l.76-.76 1.15 1.15" fill="#d91920"/></svg>
